components/ui-node-icon/src/countMatches/countMatches.small.svg

<svg width="16" height="16" viewBox="0 0 16 16" fill="none" xmlns="http://www.w3.org/2000/svg">
  <path fill-rule="evenodd" clip-rule="evenodd" d="M4.00003 2.50001C4.00003 2.29778 3.87821 2.11547 3.69137 2.03807C3.50453 1.96068 3.28947 2.00346 3.14648 2.14646L2.14648 3.14646C1.95121 3.34172 1.95121 3.65831 2.14648 3.85357C2.34174 4.04883 2.65832 4.04883 2.85358 3.85357L3.00003 3.70712V6.50001C3.00003 6.77616 3.22389 7.00001 3.50003 7.00001C3.77617 7.00001 4.00003 6.77616 4.00003 6.50001V2.50001ZM13 3.00001V6.00001L7.00003 6.00001V3.00001L13 3.00001ZM13 2.00001C13.5523 2.00001 14 2.44773 14 3.00001V6.00001C14 6.5523 13.5523 7.00001 13 7.00001L7.00003 7.00001C6.44774 7.00001 6.00003 6.5523 6.00003 6.00001V3.00001C6.00003 2.44773 6.44774 2.00001 7.00003 2.00001L13 2.00001ZM13 13V10H7.00003V13H13ZM14 10C14 9.44773 13.5523 9.00001 13 9.00001L7.00003 9.00001C6.44774 9.00001 6.00003 9.44773 6.00003 10V13C6.00003 13.5523 6.44774 14 7.00003 14H13C13.5523 14 14 13.5523 14 13V10ZM1.50001 9C1.22387 9 1.00001 9.22386 1.00001 9.5C1.00001 9.77614 1.22387 10 1.50001 10H3.00001V11.2929L1.14646 13.1464C1.00346 13.2894 0.960684 13.5045 1.03807 13.6913C1.11547 13.8782 1.29778 14 1.50001 14H3.50001C3.77616 14 4.00001 13.7761 4.00001 13.5C4.00001 13.2239 3.77616 13 3.50001 13H2.70712L3.85357 11.8536C3.94734 11.7598 4.00001 11.6326 4.00001 11.5V9.5C4.00001 9.22386 3.77616 9 3.50001 9H1.50001Z" fill="currentColor"/>
</svg>

<svg xmlns="http://www.w3.org/2000/svg" width="16" height="16" fill="none" viewBox="0 0 16 16">
  <path fill="currentColor" fill-rule="evenodd" d="M4 2.5a.5.5 0 0 0-.854-.354l-1 1a.5.5 0 1 0 .708.708L3 3.707V6.5a.5.5 0 1 0 1 0v-4Zm9 .5v3H7V3h6Zm0-1a1 1 0 0 1 1 1v3a1 1 0 0 1-1 1H7a1 1 0 0 1-1-1V3a1 1 0 0 1 1-1h6Zm0 11v-3H7v3h6Zm1-3a1 1 0 0 0-1-1H7a1 1 0 0 0-1 1v3a1 1 0 0 0 1 1h6a1 1 0 0 0 1-1v-3ZM1.5 9a.5.5 0 0 0 0 1H3v1.293l-1.854 1.853A.5.5 0 0 0 1.5 14h2a.5.5 0 0 0 0-1h-.793l1.147-1.146A.5.5 0 0 0 4 11.5v-2a.5.5 0 0 0-.5-.5h-2Z" clip-rule="evenodd"/>
</svg>
